X: 25189
T: Mak A Kishie Needle, Dye
R: reel
M: 4/4
K: Gmajor
A|:BdBG AB c2|BdBG Bdgd|BdBG ABce|1 dcBA G2 GA:|2 dcBA G2 Bc||
|:dBgB eAcA|dBgB dgBg|dBgB eAcA|1 dcBA G2 Bc:|2 dcBA G4||

